actions/symbolic/contact-new-symbolic.svg

<svg viewBox="0 0 16 16" xmlns="http://www.w3.org/2000/svg"><path d="m8 2a6.0000003 6.0000008 0 0 0 -6 6 6.0000003 6.0000008 0 0 0 6 6 6.0000003 6.0000008 0 0 0 6-6 6.0000003 6.0000008 0 0 0 -6-6zm-.013393 2.7606027c.8119068 0 1.5117188.5498789 1.5117188 1.6004464 0 .6832397-.3212085 1.3784319-.7399554 1.8097099h.00335c-.160642.4883204.096605.6027696.1372767.6160714.9732428.3343636 2.2037969 1.1686456 2.1763399 2.4525666h-6.1506702c-.0246385-1.34402 1.5319277-2.2674569 2.1043511-2.4525666.0613918-.0222549.3550713-.1819574.1908482-.6127233-.4213015-.4302542-.7399554-1.1270045-.7399554-1.813058 0-1.0508233.6942781-1.6004464 1.5066964-1.6004464z" fill="#bebebe"/></svg>

<?xml version="1.0" encoding="UTF-8" standalone="no"?>
<svg
   xmlns:dc="http://purl.org/dc/elements/1.1/"
   xmlns:cc="http://creativecommons.org/ns#"
   xmlns:rdf="http://www.w3.org/1999/02/22-rdf-syntax-ns#"
   xmlns:svg="http://www.w3.org/2000/svg"
   xmlns="http://www.w3.org/2000/svg"
   xmlns:sodipodi="http://sodipodi.sourceforge.net/DTD/sodipodi-0.dtd"
   xmlns:inkscape="http://www.inkscape.org/namespaces/inkscape"
   viewBox="0 0 16 16"
   id="svg3193"
   version="1.1"
   inkscape:version="0.91 r13725"
   sodipodi:docname="contact-new-symbolic.svg">
  <metadata
     id="metadata3201">
    <rdf:RDF>
      <cc:Work
         rdf:about="">
        <dc:format>image/svg+xml</dc:format>
        <dc:type
           rdf:resource="http://purl.org/dc/dcmitype/StillImage" />
      </cc:Work>
    </rdf:RDF>
  </metadata>
  <sodipodi:namedview
     pagecolor="#ffffff"
     bordercolor="#666666"
     borderopacity="1"
     objecttolerance="10"
     gridtolerance="10"
     guidetolerance="10"
     inkscape:pageopacity="0"
     inkscape:pageshadow="2"
     inkscape:window-width="640"
     inkscape:window-height="480"
     id="namedview3199"
     showgrid="false"
     inkscape:zoom="41.1875"
     inkscape:cx="3.6783005"
     inkscape:cy="8"
     inkscape:current-layer="svg3193" />
  <defs
     id="defs3051">
    <style
       type="text/css"
       id="current-color-scheme">
      .ColorScheme-Text {
        color:#bebebe;
      }
      </style>
  </defs>
  <path
     style="color:#bebebe;fill:currentColor;fill-opacity:1;stroke:none"
     class="ColorScheme-Text"
     d="M 8,2 A 6.0000003,6.0000008 0 0 0 2,8 6.0000003,6.0000008 0 0 0 8,14 6.0000003,6.0000008 0 0 0 14,8 6.0000003,6.0000008 0 0 0 8,2 Z M 7.986607,4.7606027 c 0.8119068,0 1.5117188,0.5498789 1.5117188,1.6004464 0,0.6832397 -0.3212085,1.3784319 -0.7399554,1.8097099 l 0.00335,0 C 8.6010784,8.6590794 8.8583254,8.7735286 8.8989971,8.7868304 9.8722399,9.121194 11.102794,9.955476 11.075337,11.239397 l -6.1506702,0 C 4.9000283,9.895377 6.4565945,8.9719401 7.0290179,8.7868304 7.0904097,8.7645755 7.3840892,8.604873 7.2198661,8.1741071 6.7985646,7.7438529 6.4799107,7.0471026 6.4799107,6.3610491 c 0,-1.0508233 0.6942781,-1.6004464 1.5066964,-1.6004464 z"
     id="path3197"
     inkscape:connector-curvature="0" />
</svg>
